src/assets/svg/atlas-bg-shapes-right.svg

<svg fill="none" height="549" viewBox="0 0 648 549" width="648" xmlns="http://www.w3.org/2000/svg" xmlns:xlink="http://www.w3.org/1999/xlink"><clipPath id="a"><path d="m0 0h650v557.911h-650z" transform="matrix(-1 0 0 -1 650 548.911)"/></clipPath><g clip-path="url(#a)"><path clip-rule="evenodd" d="m541.678 116.546v-7.207h7.207v7.207h7.226v-7.207h7.226v7.207h7.208v7.226h7.225v-7.226h-7.208v-7.207h7.208v7.207h7.23v-7.225h-7.226v-7.208h-7.207v-7.2259h7.207v-7.2258h-7.207v-7.2078h7.207v7.2078h7.226v-7.2263h-7.226v-7.2073h7.226v-7.2298h-7.226v7.2258h-7.207v-7.2258h-7.227v7.2258h-7.225v-7.2258h-7.226v7.2258h-7.208-.018v7.2078h-7.208v7.2258h7.208v7.2257h-7.208v7.226h7.208v7.208h-7.208v7.226h7.208v7.226h7.226v-7.226h-7.211zm-.018-43.3223h-7.209v-7.2258h7.227v7.2258zm36.114 21.6593h7.226v7.226h-7.226zm-14.434 21.663h-7.225v7.226h7.225zm7.209-36.1145v-7.2078h-7.209v7.2078zm-36.098.0179h-7.225v7.2079h7.225v7.2257h-7.225v7.226h7.225v7.226h-7.225v7.208h7.225v7.226h-7.225v-7.226h-7.226v-7.226h7.226v-7.208h-7.226v-7.226h7.226v-7.2257h-7.226v-7.2258h7.226v-7.2078h-7.226v-7.2258h7.226v7.2258h7.225zm14.434 28.8676h7.226v-7.208h-7.226zm0-14.434h-7.207v7.226h7.207zm0-7.2257v7.2257h7.226v-7.2257zm0 0v-7.2079h-7.207v7.2079zm14.455 0v-7.2079h-7.225v7.2079zm0 7.2257h7.209v-7.2257h-7.209zm0 7.23v-7.2259h-7.225v7.2259zm0 0v7.208h7.209v-7.208zm-7.225-21.6815h-7.226v-7.2078h7.226zm21.659 50.5665v-7.226h7.226v7.226zm-14.434-7.226v7.226h7.227v-7.226zm-14.455 7.226v-7.226h7.226v7.226zm-14.434-7.226v7.226h7.227v-7.226zm-14.451 0v7.226h7.226v-7.226z" fill="#4038ff" fill-rule="evenodd"/><g fill="#181c20"><path clip-rule="evenodd" d="m21.6776 50.2465v-7.2078h7.2078v7.2078h7.2257v-7.2078h7.2257v7.2078h7.2077v7.2258h7.2257v-7.2258h-7.2078v-7.2078h7.2078v7.2078h7.2297v-7.2258h-7.2256v-7.2078h-7.2078v-7.2257h7.2078v-7.2258h-7.2078v-7.2078h7.2078v7.2078h7.2256v-7.2263h-7.2256v-7.2073h7.2256v-7.229808l-7.2256.000001v7.225757h-7.2078v-7.225756h-7.2263v7.225756h-7.2257v-7.225755l-7.2256.000001v7.225754l-7.2078.00001h-.0179v7.20784h-7.2078v7.2258h7.2078v7.2257h-7.2078v7.2263h7.2078v7.2079h-7.2078v7.2257h7.2078v7.2258h7.2257v-7.2258h-7.2113zm-.0179-43.32274h-7.2083v-7.225763l7.2262-.000001v7.225764zm36.1146 21.65934h7.2256v7.2263h-7.2256zm-14.4341 21.6634h-7.2257v7.2258h7.2257zm7.2084-36.1149v-7.20785h-7.2084v7.20785zm-36.0972.0179h-7.22572v7.2079h7.22572v7.2257h-7.22572l.00001 7.2263h7.22571v7.2258h-7.22571v7.2078h7.22571v7.2258h-7.22571v-7.2258h-7.22568558l-.00000063-7.2257h7.22568621v-7.2079h-7.22568684l-.00000063-7.2263h7.22567747v-7.2257h-7.22567811l-.00000063-7.2258h7.22567874v-7.20784h-7.22567937l-.00000063-7.225762 7.22568-.000001v7.225763h7.22572zm14.434 28.8678h7.2257v-7.2079h-7.2257zm0-14.4342h-7.2078v7.2263h7.2078zm0-7.2257v7.2257h7.2257v-7.2258zm0 0v-7.2079h-7.2078v7.2079zm14.4548-.0001v-7.2078h-7.2257v7.2078zm0 7.2258h7.2084v-7.2258h-7.2084zm0 7.2298v-7.2257h-7.2257v7.2257zm0 0v7.2079l7.2084-.0001v-7.2078zm-7.2257-21.6813h-7.2256v-7.20785h7.2256zm21.6598 50.5664v-7.2257h7.2256v7.2257zm-14.4341-7.2257v7.2257h7.2263v-7.2257zm-14.4548 7.2257v-7.2257h7.2257v7.2257zm-14.434-7.2257v7.2257h7.2262v-7.2257zm-14.45139495 0 .00000063 7.2257h7.22568432v-7.2257z" fill-rule="evenodd"/><path clip-rule="evenodd" d="m396.576 390.348h-7.226v-65h7.226zm7.219 0h7.222v-65h-7.222zm14.444 0h7.222v-65h-7.222zm21.667 0h-7.223v-65h7.223zm7.222 0h7.222v-65h-7.222zm-260.004 0h7.226v-65h-7.226zm-21.67 0h-7.226v-65h7.226zm-21.67 0h7.226v-65h-7.226zm-14.434 0h7.226v-65h-7.226zm50.548 0h-7.225v-65h7.225z" fill-rule="evenodd"/><path clip-rule="evenodd" d="m382.128 520.348h7.222c0-35.898-29.102-65-65-65v7.222c31.911 0 57.778 25.867 57.778 57.778zm-14.445 0h7.223c0-27.921-22.635-50.555-50.556-50.555v7.222c23.931 0 43.333 19.402 43.333 43.333zm-7.221 0h-7.223c0-15.953-12.935-28.889-28.889-28.889v-7.222c19.944 0 36.112 16.167 36.112 36.111zm-21.667 0h7.222c0-11.967-9.7-21.667-21.667-21.667v7.223c7.977 0 14.445 6.467 14.445 14.444zm-14.445 0h7.222c0-3.99-3.232-7.222-7.222-7.222z" fill-rule="evenodd"/><path clip-rule="evenodd" d="m331.572 260.348h-7.222c0 35.898 29.102 65 65 65v-7.222c-31.911 0-57.778-25.867-57.778-57.778zm14.445 0h-7.222c0 27.921 22.634 50.556 50.555 50.556v-7.223c-23.931 0-43.333-19.402-43.333-43.333zm7.222 0h7.223c0 15.954 12.934 28.889 28.888 28.889v7.222c-19.944 0-36.111-16.167-36.111-36.111zm21.667 0h-7.222c0 11.968 9.699 21.667 21.666 21.667v-7.223c-7.977 0-14.444-6.467-14.444-14.444zm14.444 0h-7.222c0 3.99 3.232 7.222 7.222 7.222z" fill-rule="evenodd"/><path clip-rule="evenodd" d="m72.2223 260.348h-7.2223c0 35.898 29.102 65 65 65v-7.222c-31.9113 0-57.7777-25.867-57.7777-57.778zm14.4445 0h-7.2222c0 27.921 22.6344 50.556 50.5554 50.556v-7.223c-23.931 0-43.3332-19.402-43.3332-43.333zm7.2223 0h7.2219c0 15.954 12.935 28.889 28.889 28.889v7.222c-19.944 0-36.1109-16.167-36.1109-36.111zm21.6659 0h-7.221c0 11.968 9.699 21.667 21.666 21.667v-7.223c-7.977 0-14.445-6.467-14.445-14.444zm14.445 0h-7.222c0 3.99 3.232 7.222 7.222 7.222z" fill-rule="evenodd"/><path clip-rule="evenodd" d="m323 124.776v7.222c35.898 0 65-29.102 65-65.0002h-7.222c0 31.9113-25.867 57.7782-57.778 57.7782zm0-14.445v7.222c27.921 0 50.556-22.6341 50.556-50.5552h-7.223c0 23.9309-19.402 43.3332-43.333 43.3332zm0-7.222v-7.2226c15.954 0 28.889-12.9347 28.889-28.8886h7.222c0 19.9441-16.167 36.1112-36.111 36.1112zm0-21.6666v7.2217c11.968 0 21.667-9.6991 21.667-21.6663h-7.223c0 7.977-6.467 14.4446-14.444 14.4446zm0-14.4446v7.2223c3.99 0 7.222-3.2321 7.222-7.2223z" fill-rule="evenodd"/><path d="m519.35 130.348v65h-65c0-35.898 29.102-65 65-65zm130.65 5.741v-5.091h-5.092l-59.908 59.908v5.092h5.092zm-65 44.598v-10.22l39.469-39.469h10.22zm0-20.439v-10.219l19.031-19.031h10.219zm0-29.25h8.811l-8.811 8.81zm25.531 65h-10.22l49.689-49.69v10.221zm20.438 0h-10.219l29.25-29.25v10.219zm10.22 0 8.811-8.812v8.812z"/><path d="m257 66.9978v5.091l-59.908 59.9092h-5.092v-5.092l59.908-59.9082z"/><path d="m192 106.467v10.219l49.689-49.6882h-10.22z"/><path d="m192 86.0286v10.2192l29.25-29.25h-10.219z"/><path d="m200.811 66.9978h-8.811v8.8103z"/><path d="m207.311 131.998h10.22l39.469-39.4694v-10.2205z"/><path d="m227.75 131.998h10.219l19.031-19.031v-10.219z"/><path d="m257 123.186-8.811 8.812h8.811z"/></g><path clip-rule="evenodd" d="m519.35 267.574v-7.226h-65v7.226zm0 21.67v7.226h-65v-7.226zm0 21.67v-7.225h-65v7.225zm0 14.434v-7.226h-65v7.226zm0-50.548v7.225h-65v-7.225z" fill="#4038ff" fill-rule="evenodd"/><path clip-rule="evenodd" d="m453.051 9.22453v-7.22576l-65 .00001v7.22575zm0 21.67037v7.2257h-65v-7.2257zm0 21.6703v-7.2258h-65v7.2258zm0 14.4336v-7.2258h-65v7.2258zm0-50.5485v7.2257h-65v-7.2257z" fill="#181c20" fill-rule="evenodd"/></g></svg>

<svg width="648" height="549" viewBox="0 0 648 549" fill="none" xmlns="http://www.w3.org/2000/svg">
<g clip-path="url(#clip0)">
<path fill-rule="evenodd" clip-rule="evenodd" d="M541.678 116.546L541.678 109.339L548.885 109.339L548.885 116.546L556.111 116.546L556.111 109.339L563.337 109.339L563.337 116.546L570.545 116.546L570.545 123.772L577.77 123.772L577.77 116.546L570.562 116.546L570.562 109.339L577.77 109.339L577.77 116.546L585 116.546L585 109.321L577.774 109.321L577.774 102.113L570.567 102.113L570.567 94.8871L577.774 94.8871L577.774 87.6613L570.567 87.6613L570.567 80.4535L577.774 80.4535L577.774 87.6613L585 87.6613L585 80.435L577.774 80.435L577.774 73.2277L585 73.2277L585 65.9979L577.774 65.9979L577.774 73.2237L570.567 73.2237L570.567 65.9979L563.34 65.9979L563.34 73.2237L556.115 73.2237L556.115 65.9979L548.889 65.9979L548.889 73.2237L541.681 73.2237L541.663 73.2237L541.663 80.4315L534.455 80.4315L534.455 87.6573L541.663 87.6573L541.663 94.883L534.455 94.883L534.455 102.109L541.663 102.109L541.663 109.317L534.455 109.317L534.455 116.543L541.663 116.543L541.663 123.769L548.889 123.769L548.889 116.543L541.678 116.543L541.678 116.546ZM541.66 73.2237L534.451 73.2237L534.451 65.9979L541.678 65.9979L541.678 73.2237L541.66 73.2237ZM577.774 94.883L585 94.883L585 102.109L577.774 102.109L577.774 94.883ZM563.34 116.546L556.115 116.546L556.115 123.772L563.34 123.772L563.34 116.546ZM570.549 80.4315L570.549 73.2237L563.34 73.2237L563.34 80.4315L570.549 80.4315ZM534.451 80.4494L527.226 80.4494L527.226 87.6573L534.451 87.6573L534.451 94.883L527.226 94.883L527.226 102.109L534.451 102.109L534.451 109.335L527.226 109.335L527.226 116.543L534.451 116.543L534.451 123.769L527.226 123.769L527.226 116.543L520 116.543L520 109.317L527.226 109.317L527.226 102.109L520 102.109L520 94.883L527.226 94.883L527.226 87.6573L520 87.6573L520 80.4315L527.226 80.4315L527.226 73.2237L520 73.2237L520 65.9979L527.226 65.9979L527.226 73.2237L534.451 73.2237L534.451 80.4494ZM548.885 109.317L556.111 109.317L556.111 102.109L548.885 102.109L548.885 109.317ZM548.885 94.883L541.678 94.883L541.678 102.109L548.885 102.109L548.885 94.883ZM548.885 87.6573L548.885 94.883L556.111 94.883L556.111 87.6573L548.885 87.6573ZM548.885 87.6573L548.885 80.4494L541.678 80.4494L541.678 87.6573L548.885 87.6573ZM563.34 87.6573L563.34 80.4494L556.115 80.4494L556.115 87.6573L563.34 87.6573ZM563.34 94.883L570.549 94.883L570.549 87.6573L563.34 87.6573L563.34 94.883ZM563.34 102.113L563.34 94.8871L556.115 94.8871L556.115 102.113L563.34 102.113ZM563.34 102.113L563.34 109.321L570.549 109.321L570.549 102.113L563.34 102.113ZM556.115 80.4315L548.889 80.4315L548.889 73.2237L556.115 73.2237L556.115 80.4315ZM577.774 130.998L577.774 123.772L585 123.772L585 130.998L577.774 130.998ZM563.34 123.772L563.34 130.998L570.567 130.998L570.567 123.772L563.34 123.772ZM548.885 130.998L548.885 123.772L556.111 123.772L556.111 130.998L548.885 130.998ZM534.451 123.772L534.451 130.998L541.678 130.998L541.678 123.772L534.451 123.772ZM520 123.772L520 130.998L527.226 130.998L527.226 123.772L520 123.772Z" fill="#4038FF"/>
<path fill-rule="evenodd" clip-rule="evenodd" d="M21.6776 50.2465L21.6776 43.0387L28.8854 43.0387L28.8854 50.2465L36.1111 50.2465L36.1111 43.0387L43.3368 43.0387L43.3368 50.2465L50.5445 50.2465L50.5445 57.4723L57.7702 57.4723L57.7702 50.2465L50.5624 50.2465L50.5624 43.0387L57.7702 43.0387L57.7702 50.2465L64.9999 50.2465L64.9999 43.0207L57.7743 43.0207L57.7743 35.8129L50.5665 35.8129L50.5665 28.5872L57.7743 28.5872L57.7743 21.3614L50.5665 21.3614L50.5665 14.1536L57.7743 14.1536L57.7743 21.3614L64.9999 21.3614L64.9999 14.1351L57.7743 14.1351L57.7743 6.9278L64.9999 6.9278L64.9999 -0.302008L57.7743 -0.302007L57.7743 6.92375L50.5665 6.92375L50.5665 -0.302006L43.3402 -0.302006L43.3402 6.92375L36.1145 6.92375L36.1145 -0.302005L28.8889 -0.302004L28.8889 6.92375L21.6811 6.92376L21.6632 6.92376L21.6632 14.1316L14.4554 14.1316L14.4554 21.3574L21.6632 21.3574L21.6632 28.5831L14.4554 28.5831L14.4554 35.8094L21.6632 35.8094L21.6632 43.0173L14.4554 43.0173L14.4554 50.243L21.6632 50.243L21.6632 57.4688L28.8889 57.4688L28.8889 50.243L21.6776 50.243L21.6776 50.2465ZM21.6597 6.92376L14.4514 6.92376L14.4514 -0.302003L21.6776 -0.302004L21.6776 6.92376L21.6597 6.92376ZM57.7743 28.5831L64.9999 28.5831L64.9999 35.8094L57.7743 35.8094L57.7743 28.5831ZM43.3402 50.2465L36.1145 50.2465L36.1145 57.4723L43.3402 57.4723L43.3402 50.2465ZM50.5486 14.1316L50.5486 6.92375L43.3402 6.92375L43.3402 14.1316L50.5486 14.1316ZM14.4514 14.1495L7.22568 14.1495L7.22568 21.3574L14.4514 21.3574L14.4514 28.5831L7.22568 28.5831L7.22569 35.8094L14.4514 35.8094L14.4514 43.0352L7.22569 43.0352L7.22569 50.243L14.4514 50.243L14.4514 57.4688L7.22569 57.4688L7.22569 50.243L4.41879e-06 50.243L3.78709e-06 43.0173L7.22569 43.0173L7.22569 35.8094L3.15696e-06 35.8094L2.52522e-06 28.5831L7.22568 28.5831L7.22568 21.3574L1.89352e-06 21.3574L1.26182e-06 14.1316L7.22568 14.1316L7.22568 6.92376L6.31696e-07 6.92376L0 -0.302002L7.22568 -0.302003L7.22568 6.92376L14.4514 6.92376L14.4514 14.1495ZM28.8854 43.0173L36.1111 43.0173L36.1111 35.8094L28.8854 35.8094L28.8854 43.0173ZM28.8854 28.5831L21.6776 28.5831L21.6776 35.8094L28.8854 35.8094L28.8854 28.5831ZM28.8854 21.3574L28.8854 28.5831L36.1111 28.5831L36.1111 21.3573L28.8854 21.3574ZM28.8854 21.3574L28.8854 14.1495L21.6776 14.1495L21.6776 21.3574L28.8854 21.3574ZM43.3402 21.3573L43.3402 14.1495L36.1145 14.1495L36.1145 21.3573L43.3402 21.3573ZM43.3402 28.5831L50.5486 28.5831L50.5486 21.3573L43.3402 21.3573L43.3402 28.5831ZM43.3402 35.8129L43.3402 28.5872L36.1145 28.5872L36.1145 35.8129L43.3402 35.8129ZM43.3402 35.8129L43.3402 43.0208L50.5486 43.0207L50.5486 35.8129L43.3402 35.8129ZM36.1145 14.1316L28.8889 14.1316L28.8889 6.92375L36.1145 6.92375L36.1145 14.1316ZM57.7743 64.698L57.7743 57.4723L64.9999 57.4723L64.9999 64.698L57.7743 64.698ZM43.3402 57.4723L43.3402 64.698L50.5665 64.698L50.5665 57.4723L43.3402 57.4723ZM28.8854 64.698L28.8854 57.4723L36.1111 57.4723L36.1111 64.698L28.8854 64.698ZM14.4514 57.4723L14.4514 64.698L21.6776 64.698L21.6776 57.4723L14.4514 57.4723ZM5.05079e-06 57.4723L5.68248e-06 64.698L7.22569 64.698L7.22569 57.4723L5.05079e-06 57.4723Z" fill="#181C20"/>
<path fill-rule="evenodd" clip-rule="evenodd" d="M396.576 390.348L389.35 390.348L389.35 325.348L396.576 325.348L396.576 390.348ZM403.795 390.348L411.017 390.348L411.017 325.348L403.795 325.348L403.795 390.348ZM418.239 390.348L425.461 390.348L425.461 325.348L418.239 325.348L418.239 390.348ZM439.906 390.348L432.683 390.348L432.683 325.348L439.906 325.348L439.906 390.348ZM447.128 390.348L454.35 390.348L454.35 325.348L447.128 325.348L447.128 390.348ZM187.124 390.348L194.35 390.348L194.35 325.348L187.124 325.348L187.124 390.348ZM165.454 390.348L158.228 390.348L158.228 325.348L165.454 325.348L165.454 390.348ZM143.784 390.348L151.01 390.348L151.01 325.348L143.784 325.348L143.784 390.348ZM129.35 390.348L136.576 390.348L136.576 325.348L129.35 325.348L129.35 390.348ZM179.898 390.348L172.673 390.348L172.673 325.348L179.898 325.348L179.898 390.348Z" fill="#181C20"/>
<path fill-rule="evenodd" clip-rule="evenodd" d="M382.128 520.348L389.35 520.348C389.35 484.45 360.248 455.348 324.35 455.348L324.35 462.57C356.261 462.57 382.128 488.437 382.128 520.348ZM367.683 520.348L374.906 520.348C374.906 492.427 352.271 469.793 324.35 469.793L324.35 477.015C348.281 477.015 367.683 496.417 367.683 520.348ZM360.462 520.348L353.239 520.348C353.239 504.395 340.304 491.459 324.35 491.459L324.35 484.237C344.294 484.237 360.462 500.404 360.462 520.348ZM338.795 520.348L346.017 520.348C346.017 508.381 336.317 498.681 324.35 498.681L324.35 505.904C332.327 505.904 338.795 512.371 338.795 520.348ZM324.35 520.348L331.572 520.348C331.572 516.358 328.34 513.126 324.35 513.126L324.35 520.348Z" fill="#181C20"/>
<path fill-rule="evenodd" clip-rule="evenodd" d="M331.572 260.348L324.35 260.348C324.35 296.246 353.452 325.348 389.35 325.348L389.35 318.126C357.439 318.126 331.572 292.259 331.572 260.348ZM346.017 260.348L338.795 260.348C338.795 288.269 361.429 310.904 389.35 310.904L389.35 303.681C365.419 303.681 346.017 284.279 346.017 260.348ZM353.239 260.348L360.462 260.348C360.462 276.302 373.396 289.237 389.35 289.237L389.35 296.459C369.406 296.459 353.239 280.292 353.239 260.348ZM374.906 260.348L367.684 260.348C367.684 272.316 377.383 282.015 389.35 282.015L389.35 274.792C381.373 274.792 374.906 268.325 374.906 260.348ZM389.35 260.348L382.128 260.348C382.128 264.338 385.36 267.57 389.35 267.57L389.35 260.348Z" fill="#181C20"/>
<path fill-rule="evenodd" clip-rule="evenodd" d="M72.2223 260.348L65 260.348C65 296.246 94.102 325.348 130 325.348L130 318.126C98.0887 318.126 72.2223 292.259 72.2223 260.348ZM86.6668 260.348L79.4446 260.348C79.4446 288.269 102.079 310.904 130 310.904L130 303.681C106.069 303.681 86.6668 284.279 86.6668 260.348ZM93.8891 260.348L101.111 260.348C101.111 276.302 114.046 289.237 130 289.237L130 296.459C110.056 296.459 93.8891 280.292 93.8891 260.348ZM115.555 260.348L108.334 260.348C108.334 272.316 118.033 282.015 130 282.015L130 274.792C122.023 274.792 115.555 268.325 115.555 260.348ZM130 260.348L122.778 260.348C122.778 264.338 126.01 267.57 130 267.57L130 260.348Z" fill="#181C20"/>
<path fill-rule="evenodd" clip-rule="evenodd" d="M323 124.776L323 131.998C358.898 131.998 388 102.896 388 66.9978L380.778 66.9978C380.778 98.9091 354.911 124.776 323 124.776ZM323 110.331L323 117.553C350.921 117.553 373.556 94.9189 373.556 66.9978L366.333 66.9978C366.333 90.9287 346.931 110.331 323 110.331ZM323 103.109L323 95.8864C338.954 95.8864 351.889 82.9517 351.889 66.9978L359.111 66.9978C359.111 86.9419 342.944 103.109 323 103.109ZM323 81.4424L323 88.6641C334.968 88.6641 344.667 78.965 344.667 66.9978L337.444 66.9978C337.444 74.9748 330.977 81.4424 323 81.4424ZM323 66.9978L323 74.2201C326.99 74.2201 330.222 70.988 330.222 66.9978L323 66.9978Z" fill="#181C20"/>
<path d="M519.35 130.348L519.35 195.348L454.35 195.348C454.35 159.45 483.452 130.348 519.35 130.348ZM650 136.089L650 130.998L644.908 130.998L585 190.906L585 195.998L590.092 195.998L650 136.089ZM585 180.687L585 170.467L624.469 130.998L634.689 130.998L585 180.687ZM585 160.248L585 150.029L604.031 130.998L614.25 130.998L585 160.248ZM585 130.998L593.811 130.998L585 139.808L585 130.998ZM610.531 195.998L600.311 195.998L650 146.308L650 156.529L610.531 195.998ZM630.969 195.998L620.75 195.998L650 166.748L650 176.967L630.969 195.998ZM641.189 195.998L650 187.186L650 195.998L641.189 195.998Z" fill="#181C20"/>
<path d="M257 66.9978L257 72.0888L197.092 131.998L192 131.998L192 126.906L251.908 66.9978L257 66.9978Z" fill="#181C20"/>
<path d="M192 106.467L192 116.686L241.689 66.9978L231.469 66.9978L192 106.467Z" fill="#181C20"/>
<path d="M192 86.0286L192 96.2478L221.25 66.9978L211.031 66.9978L192 86.0286Z" fill="#181C20"/>
<path d="M200.811 66.9978L192 66.9978L192 75.8081L200.811 66.9978Z" fill="#181C20"/>
<path d="M207.311 131.998L217.531 131.998L257 92.5286L257 82.3081L207.311 131.998Z" fill="#181C20"/>
<path d="M227.75 131.998L237.969 131.998L257 112.967L257 102.748L227.75 131.998Z" fill="#181C20"/>
<path d="M257 123.186L248.189 131.998L257 131.998L257 123.186Z" fill="#181C20"/>
<path fill-rule="evenodd" clip-rule="evenodd" d="M519.35 267.574L519.35 260.348L454.35 260.348L454.35 267.574L519.35 267.574ZM519.35 289.244L519.35 296.47L454.35 296.47L454.35 289.244L519.35 289.244ZM519.35 310.914L519.35 303.689L454.35 303.689L454.35 310.914L519.35 310.914ZM519.35 325.348L519.35 318.122L454.35 318.122L454.35 325.348L519.35 325.348ZM519.35 274.8L519.35 282.025L454.35 282.025L454.35 274.8L519.35 274.8Z" fill="#4038FF"/>
<path fill-rule="evenodd" clip-rule="evenodd" d="M453.051 9.22453L453.051 1.99877L388.051 1.99878L388.051 9.22453L453.051 9.22453ZM453.051 30.8949L453.051 38.1206L388.051 38.1206L388.051 30.8949L453.051 30.8949ZM453.051 52.5652L453.051 45.3394L388.051 45.3394L388.051 52.5652L453.051 52.5652ZM453.051 66.9988L453.051 59.773L388.051 59.773L388.051 66.9988L453.051 66.9988ZM453.051 16.4503L453.051 23.676L388.051 23.676L388.051 16.4503L453.051 16.4503Z" fill="#181C20"/>
</g>
<defs>
<clipPath id="clip0">
<rect width="650" height="557.911" fill="white" transform="translate(650 548.911) rotate(180)"/>
</clipPath>
</defs>
</svg>
